!!!ONB: MCCC : ILB0184_01 : Extracted Monophonic Melody
!!!COM: Beethoven, Ludwig van
!!!OPR: Piano Sonata No.23
!!!OMV: 1
!!!SCT: Op.57
!!!ODT: 1804///
**kern
*thru
*staff1
*Ipiano
*clefG2
*k[b-e-a-d-]
*f:
*M12/8
*MM144
4c[
16c]
16A-
=1
2.F[
4.F]
4A-[
16A-]
16c
=2
4.f
4a-[
16a-]
16cc
4.ff
4.f
=3
4.cc[
4cc]
8dd
4.dd[
8.dd]
16cc
16ee
16dd
=4
4cc
8r
4r
8r
4r
8r
4d-[
16d-]
16B-
=5
2.G-[
4.G-]
4B-[
16B-]
16d-
=6
4.g-
4b-[
16b-]
16dd-
4.gg-
4.g-
=7
4.dd-[
4dd-]
8ee-
4.ee-[
8.ee-]
16dd-
16ff
16ee-
=8
4dd-
8r
4r
8r
2.r
=9
4.cc[
4cc]
8dd
4.dd[
8.dd]
16cc
16ee
16dd
=10
4cc
8r
4r
8r
2.r
=11
4.ee[
4ee]
8ff
4.ff[
8.ff]
16ee
16gg
16ff
=12
4ee
8r
4r
8r
4r
8r
8gg
8gg
8gg
=13
4bb-
8r
4r
8r
4r
8r
8bb-
8bb-
8bb-
=14
16eee
16bb-
16ggg
16eee
16bbb-
16ggg
16eee
16ggg
16bb-
16eee
16gg
16bb-
16ee
16gg
16b-
16ee
16g
16b-
16e
16g
16B-
16e
16G
16B-
=15
2.r
4.r
8d-
8r
8r
=16
[2.c
4.c]
[4c
16c]
16A-
=17
8F
4f
4a-
4cc
4ff
4aa-
8ccc
=18
[2.fff
4.fff]
4A-[
16A-]
16c
=19
4.f
4a-[
16a-]
16cc
4.ff
4.f
=20
8c
4e
4g
4cc
4ee
4gg
8ccc
=21
4.cc[
4cc]
8dd
[4.dd
8.dd]
16cc
16ee
16dd
=22
8c
4e
4g
4cc
4ee
4gg
8ccc
=23
4.cc[
4cc]
8dd-
4.dd-[
4dd-]
16cc
16dd-
=24
4.bb-
4r
8r
2.r
=25
4.ccc-
4r
8r
2.r
=26
1.fff-
=27
4eee-
8r
4r
8r
4r
8r
[4bb-
16bb-]
16bb-
=28
4ccc-
8bb-
4r
8b-
4r
8B-
8r
8.r
16bb-
=29
4ddd-
8ccc-
4r
8cc-
4r
8c-
8r
8.r
16ccc-
=30
1.fff-
=31
4eee-
8r
4r
8r
2.ee-
=32
4dd
8r
4r
8r
4.dd-
4r
8r
=33
4.dd-
4r
8r
2.r
=34
4.d-
4r
8r
2.r
=35
2.r
4r
8r
[4c
16c]
16e-
=36
4.a-
[4cc
16cc]
16a-
4.g
[4b-
16b-]
16g
=37
4.a-
2.e-
[4f
16f]
16d-
=38
4.c
[4e-
16e-]
16c
4.B-
[4e-
16e-]
16d-
=39
4.c
2.e-
[4cc
16cc]
16ee-
=40
4.aa-
[4ccc
16ccc]
16aa-
4.gg
[4bb-
16bb-]
16gg
=41
4.aa-
2.ee-[
4.ee-]
=42
4.ff-
[2.dd-
4.dd-]
=43
2.cc-[
4.cc-]
4b-
8a-
=44
1.b-
=45
1.ee-
=46
1.eee-
=47
8fff-
8eee-
8ddd-
8ccc-
8bb-
8aa-
8gg
8gg-
8ff-
8ee-
8dd-
8cc-
=48
8b-
8a-
8g
8g-
8f-
8e-
8d-
8c-
8B-
8A-
8G
8G-
=49
8F-
8E-
8D-
8C-
8BB-
8AA-
8GG
8GG-
8FF-
4r
8r
=50
1.r
=51
16A-
16E-
16C-
16E-
16A-
16E-
16c-
16E-
16B-
16E-
16A-
16E-
16A-
16E-
16C-
16E-
16A-
16E-
16c-
16E-
16B-
16E-
16A-
16E-
=52
16f-
16c-
16A-
16c-
16f-
16c-
16a-
16c-
16g-
16c-
16f-
16c-
16f-
16c-
16A-
16c-
16f-
16c-
16a-
16c-
16g-
16c-
16f-
16c-
=53
16dd-
16ff-
16dd-
16ff-
16dd-
16ff-
16dd-
16ff-
16dd-
16ff-
16dd-
16ff-
16dd-
16ff-
16dd-
16ff-
16dd-
16ff-
16dd-
16ff-
16b-
16dd-
16g
16b-
=54
16f-
16g
16d-
16f-
16B-
16d-
16A-
16B-
16d-
16B-
16A-
16B-
16r
16A-
16d-
16B-
16A-
16d-
16r
16G
16d-
16B-
16G
16d-
=55
16a-
16e-
16c-
16e-
16a-
16e-
16cc-
16e-
16b-
16e-
16a-
16e-
16a-
16e-
16c-
16e-
16a-
16e-
16cc-
16e-
16b-
16e-
16a-
16e-
=56
16ff-
16cc-
16a-
16cc-
16ff-
16cc-
16aa-
16cc-
16gg-
16cc-
16ff-
16cc-
16ff-
16cc-
16a-
16cc-
16ff-
16cc-
16aa-
16cc-
16gg-
16cc-
16ff-
16cc-
=57
16ddd-
16fff-
16ddd-
16fff-
16ddd-
16fff-
16ddd-
16fff-
16ddd-
16fff-
16ddd-
16fff-
16ddd-
16fff-
16ddd-
16fff-
16ddd-
16fff-
16ddd-
16fff-
16ddd-
16fff-
16ddd-
16fff-
=58
16ddd-
16fff-
16bb-
16ddd-
16aa-
16bb-
16aa-
16bb-
16ddd-
16bb-
16aa-
16bb-
16r
16aa-
16ddd-
16bb-
16aa-
16ddd-
16r
16gg
16ddd-
16bb-
16gg
16ddd-
=59
16r
16ff-
16ddd-
16bb-
16ff-
16ddd-
16r
16ee-
16ddd-
16bb-
16ee-
16ddd-
16r
16aa-
16ddd-
16bb-
16aa-
16ddd-
16r
16gg
16ddd-
16bb-
16gg
16ddd-
=60
*8va
8r
16r
16ccc-
16ddd
16fff
16aaa-
16fff
16ddd
16cccc-
16bbb-
16aaa-
16ggg
16bbb-
16aaa-
16ggg
16fff-
16eee-
16ddd-
16fff-
16eee-
16ddd-
16ccc-
16bb-
=61
16r
16aa-
16ccc-
16eee-
16aaa-
16aa-
8.r
16aaa-
16aa-
16aaa-
8.r
16aaa-
16aa-
16aaa-
8.r
16ggg
16gg
16ggg
=62
16r
16aa-
16ccc-
16eee-
16aaa-
16aa-
*X8va
8.r
16aa-
16a-
16aa-
8.r
16aa-
16a-
16aa-
8.r
16gg
16g
16gg
=63
*8va
16r
16aa-
16ccc-
16eee-
16aaa-
16aa-
8.r
16aaa-
16aa-
16aaa-
8.r
16aaa-
16aa-
16aaa-
8.r
16ggg
16gg
16ggg
=64
16aaa-
16eee-
16ccc-
16eee-
16aaa-
16eee-
16ccc-
16eee-
16aaa-
16eee-
16ccc-
16eee-
16aaa-
16eee-
16ccc-
16eee-
16aaa-
16eee-
16aaa-
16eee-
16aaa-
16eee-
16aaa-
16eee-
=65
2.aaa-[
4.aaa-]
*X8va
4B[
16B]
16G#
=66
2.D#[
4.D#]
4B[
16B]
16G#
=67
2.E[
4.E]
4G#[
16G#]
16B
=68
4.e
4g#[
16g#]
16b
4.ee
4.e
=69
4.b[
4b]
8cc#
4.cc#[
8.cc#]
16b
16dd#
16cc#
=70
4b
8r
4r
8r
2.r
=71
*k[]
4.ff#[
4ff#]
8gg#
[4.gg#
8.gg#]
16ff#
16aa
16gg#
=72
4ff#
8r
4r
8r
2.r
=73
4.e[
4e]
8f#
[4.f#
8.f#]
16e
16g#
16f#
=74
4.e
2.a
4f#[
16f#]
16g#
=75
2.e
2.d#
=76
4.ee
4ee
8ff#
4.ff#[
8.ff#]
16ee
16gg#
16ff#
=77
4.ee
2.aa
4ff#[
16ff#]
16gg#
=78
2.ee
4dd#
8r
4r
8r
=79
16b
16g
16b
16g
16b
16g
16b
16g
16b
16g
16b
16g
16b
16g
16b
16g
16b
16g
16b
16g
16b
16g
16b
16g
=80
16b
16g
16b
16g
16b
16g
16b
16g
16b
16g
16b
16g
16b
16g
16b
16g
16b
16g
16b
16g
16b
16g
16b
16g
=81
2.r
4r
8r
[4b
16b]
16dd
=82
4.gg
[4bb
16bb]
16ddd
4.ggg
4.ggg
=85
2.r
4r
8r
[4g
16g]
16b-
=86
4.ee-
[4gg
16gg]
16bb-
4.eee-
4.eee-
=89
[2.g-
4.g-]
[4cc
16cc]
16ee-
=90
*k[b-e-a-d-]
4.gg-
*8va
[4ccc
16ccc]
16eee-
4.ggg-
4.ggg-
=91
[4.ggg-
8ggg-]
16ggg-
16eee-
16ccc
16gg-
[4.ggg-
8ggg-]
*X8va
16gg-
16ee-
16cc
16g-
=92
[4.gg-
8gg-]
16g-
16e-
16c
16G-
8g-
16g-
16e-
16c
16G-
8g-
16g-
16e-
16c
16G-
=93
4g-
8r
4r
8r
2.r
=94
4.e-
4r
8r
4.ee-
4r
8r
=95
4.f
4r
8r
4.ff
4r
8r
=96
1.b-
=97
4a-
8r
4r
8r
4r
8r
[4e-
16e-]
16e-
=98
4f
8e-
8r
8r
8ee-
8r
8r
8eee-
8r
8.r
16e-
=99
4g-
8f
8r
8r
8ff
8r
8r
8fff
8r
8.r
16f
=100
1.b-
=101
4a-
8r
4r
8r
2.b--
=102
4a-
8r
4r
8r
2.bb--
=103
4.aa-
4r
8r
4.a-
4r
8r
=104
4.g
4r
8r
4.g-
4r
8r
=105
4g-
8r
4r
8r
8ee-
8ff
8ee-
8dd-
8ee-
8dd-
=106
8cc
8gg-
8r
4r
8r
8gg-
8aa-
8gg-
8ff
8gg-
8ff
=107
8ee-
8eee-
8r
4r
8r
8eee-
8fff
8eee-
8ddd-
8eee-
8ddd-
=108
8ccc
8ddd-
8ccc
8bb-
8ccc
8bb-
8aa-
8bb-
8aa-
8gg-
8aa-
8gg-
=109
4ff
8r
4r
8r
4r
8r
[4f
16f]
16a-
=110
4.dd-
[4ff
16ff]
16dd-
4.cc
[4ee-
16ee-]
16cc
=111
4.dd-
[4.a-
4.a-]
[4b-
16b-]
16g-
=112
4.f
[4a-
16a-]
16f
4.e-
[4g-
16g-]
16e-
=113
4.c
[4.f
4.f]
[4dd-
16dd-]
16ff
=114
4.bb-
[4ddd-
16ddd-]
16bb-
4.aa
[4ccc
16ccc]
16aa
=115
4.bb-
[4.ff
4.ff]
[4gg-
16gg-]
16ee-
=116
4.dd-
[4ff
16ff]
16dd-
4.cc
[4ee-
16ee-]
16cc
=117
4.b-
2.dd-
[4bb-
16bb-]
16ddd-
=118
4.ggg-
[4bbb-
16bbb-]
16ggg-
4.fff
[4aaa-
16aaa-]
16fff
=119
4.fff#
[2.ccc#
4.ccc#]
=120
4.fff#
[2.ddd
4.ddd]
=121
4.ggg
[2.ddd
4.ddd]
=122
4.ggg
[2.eee
4.eee]
=123
4r
8r
*8va
16gg
16bb-
16ddd-
16eee
16ggg
16gg
4r
8r
16gg
16bb-
16ddd-
16eee
16ggg
16gg
=124
4r
8r
16gg
16bb-
16ddd-
16eee
16ggg
16gg
4r
8r
16gg
16bb-
16ddd-
16eee
16ggg
16gg
=125
8r
16bb-
16ddd-
16eee
16ggg
8r
16ddd-
16eee
16ggg
16bbb-
8.r
16eee
16ggg
16bbb-
8.r
16eee
16ggg
16bbb-
=126
8r
16eee
16ggg
8bbb-
8r
16ddd-
16eee
8ggg
8r
16bb-
16ddd-
8eee
*X8va
8r
16gg
16bb-
8ddd-
=127
8r
16ee
16gg
8bb-
8r
16dd-
16ee
8gg
8r
16b-
16dd-
8ee
8r
16g
16b-
8dd-
=128
8r
16e
16g
8b-
8r
16d-
16e
8g
8r
16B-
16d-
8e
8r
16G
16B-
8d-
=129
8r
16E
16G
8B-
8r
16D-
16E
8G
8r
16BB-
16D-
8E
8r
16GG
16BB-
8D-
=130
16BB-
16E
16BB-
16E
16BB-
16E
16BB-
16E
16BB-
16E
16BB-
16E
16BB-
16E
16BB-
16E
16BB-
16E
16BB-
16E
16BB-
16E
16BB-
16E
=131
16BB-
16E
16BB-
16E
16BB-
16E
16BB-
16E
16BB-
16E
16BB-
16E
16BB-
16E
16BB-
16E
16BB-
16E
16BB-
16E
16BB-
16E
16BB-
16E
=132
16BB-
16E
16BB-
16E
16BB-
16E
16BB-
16E
16BB-
16E
16BB-
16E
16BB-
16E
16BB-
16E
16BB-
16E
16BB-
16E
16BB-
16E
16BB-
16E
=133
16BB-
16E
16BB-
16E
16BB-
16E
16BB-
16E
16BB-
16E
16BB-
16E
16BB-
16E
16BB-
16E
16BB-
16E
16BB-
16E
16BB-
16E
16BB-
16E
=134
4E
8r
4r
8r
2.r
=135
2.r
4r
8r
[4c
16c]
16A-
=136
[2.F
4.F]
[4A-
16A-]
16c
=137
4.f
[4a-
16a-]
16cc
4.ff
4.f
=138
[4.cc
4cc]
8dd
[4.dd
8.dd]
16cc
16ee
16dd
=139
4cc
8r
4r
8r
4r
8r
[4d-
16d-]
16B-
=140
[2.G-
4.G-]
[4B-
16B-]
16d-
=141
4.g-
[4b-
16b-]
16dd-
4.gg-
4.g-
=142
[4.dd-
4dd-]
8ee-
[4.ee-
8.ee-]
16dd-
16ff
16ee-
=143
4dd-
8r
4r
8r
2.r
=144
[4.cc
4cc]
[8dd
4.dd_
8.dd]
16cc
16ee
16dd
=145
4cc
8r
8D-
8D-
8D-
4C
8r
4r
8r
=146
[4.ee
4ee]
8ff
[4.ff
8.ff]
16ee
16gg
16ff
=147
4ee
8r
8D-
8D-
8D-
4C
8r
8gg
8gg
8gg
=148
4bb-
8r
8D-
8D-
8D-
4C
8r
8bb-
8bb-
8bb-
=149
*8va
16eee
16bb-
16ggg
16eee
16bbb-
16ggg
16eee
16ggg
16bb-
16eee
16gg
16bb-
*X8va
16ee
16gg
16b-
16ee
16g
16b-
16e
16g
16B-
16e
16G
16B-
=150
16E
16G
16BB-
16E
16GG
16BB-
16D-
16BB-
16E
16D-
16G
16E
8B-
8r
8r
8d-
8r
8r
=151
[2.c
4.c]
[4c
16c]
16A
=152
8F
4f
4a
4cc
4ff
4aa
8ccc
=153
[2.fff
4.fff]
4A[
16A]
16c
=154
4.f
4a[
16a]
16cc
4.ff
4.f
=155
8c
4e
4g
4cc
4ee
4gg
8ccc
=156
4.cc[
4cc]
8dd
[4.dd
8.dd]
16cc
16ee
16dd
=157
8c
4e
4g
4cc
4ee
4gg
8ccc
=158
4.cc[
4cc]
8dd
[4.dd
4dd]
16cc
16dd
=159
8e
4g
4b-
4ee
4gg
4bb-
8eee
=160
4.ee[
4ee]
8ff
[4.ff
4ff]
16ee
16ff
=161
8g
4ee
4gg
4bb-
4ddd-
4eee
8ggg
=162
[4.gg
4gg]
8aa-
4.aa-[
8.aa-]
16gg
16bb-
16aa-
=163
4.gg
4r
8r
2.r
=164
4.aa-
4r
8r
2.r
=165
1.ddd-
=166
4ccc
8r
4r
8r
4r
8r
[4gg
16gg]
16gg
=167
4aa-
8gg
8r
8r
8g
8r
8r
8G
8r
8.r
16gg
=168
4bb-
8aa-
8r
8r
8a-
8r
8r
8A-
8r
8.r
16aa-
=169
1.ddd-
=170
4ccc
8r
4r
8r
2.cc
=171
4b
8r
4r
8r
4b-
8r
4r
8r
=172
4.a-
4r
8r
2.r
=173
4.G
4r
8r
2.r
=174
2.r
4r
8r
[4A
16A]
16c
=175
4.f
[4a
16a]
16f
4.e
[4g
16g]
16e
=176
4.f
2.c
[4d
16d]
16B-
=177
4.A
[4c
16c]
16A
4.G
[4c
16c]
16B-
=178
4.A
[4.c
4.c]
[4a
16a]
16cc
=179
4.ff
[4aa
16aa]
16ff
4.ee
[4gg
16gg]
16ee
=180
4.ff
2.cc[
4.cc]
=181
4.dd-
[2.b-
4.b-]
=182
2.a-[
4.a-]
4g
8f
=183
1.g
=184
1.cc
=185
1.ccc
=186
8ddd-
8ccc
8bb-
8aa-
8gg
8gg-
8ff
8ee
8ee-
8dd-
8cc
8b-
=187
8a-
8g
8g-
8f
8e
8e-
8d-
8c
8B-
8A-
8G
8G-
=188
8F
8E
8E-
8D-
8C
8BB-
8AA-
8GG
8GG-
4r
8r
=189
1.r
=190
16F
16C
16AA-
16C
16F
16C
16A-
16C
16G
16C
16F
16C
16F
16C
16AA-
16C
16F
16C
16A-
16C
16G
16C
16F
16C
=191
16d-
16A-
16F
16A-
16d-
16A-
16f
16A-
16e-
16A-
16d-
16A-
16d-
16A-
16F
16A-
16d-
16A-
16f
16A-
16e-
16A-
16d-
16A-
=192
16b-
16dd-
16b-
16dd-
16b-
16dd-
16b-
16dd-
16b-
16dd-
16b-
16dd-
16b-
16dd-
16b-
16dd-
16b-
16dd-
16b-
16dd-
16g
16b-
16e
16g
=193
16d-
16e
16B-
16d-
16G
16B-
16F
16G
16B-
16G
16F
16G
16r
16F
16B-
16G
16F
16B-
16r
16E
16B-
16G
16E
16B-
=194
16f
16c
16A-
16c
16f
16c
16a-
16c
16g
16c
16f
16c
16f
16c
16A-
16c
16f
16c
16a-
16c
16g
16c
16f
16c
=195
16dd-
16a-
16f
16a-
16dd-
16a-
16ff
16a-
16ee-
16a-
16dd-
16a-
16dd-
16a-
16f
16a-
16dd-
16a-
16ff
16a-
16ee-
16a-
16dd-
16a-
=196
16bb-
16ddd-
16bb-
16ddd-
16bb-
16ddd-
16bb-
16ddd-
16bb-
16ddd-
16bb-
16ddd-
16bb-
16ddd-
16bb-
16ddd-
16bb-
16ddd-
16bb-
16ddd-
16bb-
16ddd-
16bb-
16ddd-
=197
16bb-
16ddd-
16gg
16bb-
16ff
16gg
16ff
16gg
16bb-
16gg
16ff
16gg
16r
16ff
16bb-
16gg
16ff
16bb-
16r
16ee
16bb-
16gg
16ee
16bb-
=198
16r
16dd-
16bb-
16gg
16dd-
16gg
16r
16cc
16bb-
16gg
16cc
16gg
16r
16ff
16bb-
16gg
16ff
16bb-
16r
16ee
16bb-
16gg
16ee
16bb-
=199
8r
8r
16bb
16ddd
16fff
16ddd
16bb
16aaa-
16ggg
16fff
16eee
16ggg
16fff
16eee
16ddd-
16ccc
16bb-
16ddd-
16ccc
16bb
16aa-
16gg
=200
16r
16ff
16aa-
16ccc
16fff
16ff
8.r
16fff
16ff
16fff
8.r
16fff
16ff
16fff
8.r
16eee
16ee
16eee
=201
16r
16ff
16aa-
16ccc
16fff
16ff
8.r
16ff
16f
16ff
8.r
16ff
16f
16ff
8.r
16ee
16e
16ee
=202
16r
16ff
16aa-
16ccc
16fff
16ff
8.r
16fff
16ff
16fff
8.r
16fff
16ff
16fff
8.r
16eee
16ee
16eee
=203
16fff
16ccc
16aa-
16ccc
16fff
16ccc
16aa-
16ccc
16fff
16ccc
16aa-
16ccc
16fff
16ccc
16aa-
16ccc
16fff
16ccc
16fff
16ccc
16fff
16ccc
16fff
16ccc
=204
16fff
16ccc
16aa-
16ccc
16fff
16ccc
16aa-
16ccc
16fff
16ccc
16aa-
16ccc
16fff
16ccc
16aa-
16ccc
16fff
16ccc
16aa-
16ccc
16fff
16ccc
16aa-
16ccc
=205
16fff
16ccc
16aa-
16ccc
16fff
16ccc
16aa-
16ccc
16fff
16ccc
16aa-
16ccc
16fff
16ccc
16aa-
16ccc
16fff
16ccc
16aa-
16ccc
16fff
16ccc
16aa-
16ccc
=206
16eee-
16ccc
16aa-
16ccc
16eee-
16ccc
16aa-
16ccc
16eee-
16ccc
16aa-
16ccc
16eee-
16ccc
16aa-
16ccc
16eee-
16ccc
16aa-
16ccc
16eee-
16ccc
16aa-
16ccc
=207
16eee-
16ccc
16aa-
16ccc
16eee-
16ccc
16aa-
16ccc
16eee-
16ccc
16aa-
16ccc
16eee-
16ccc
16aa-
16ccc
16eee-
16ccc
16aa-
16ccc
16eee-
16ccc
16aa-
16ccc
=208
16fff
16ddd-
16aa-
16ddd-
16fff
16ddd-
16aa-
16ddd-
16fff
16ddd-
16aa-
16ddd-
16fff
16ddd-
16aa-
16ddd-
16fff
16ddd-
16aa-
16ddd-
16fff
16ddd-
16aa-
16ddd-
=209
16ggg-
16ccc
16aa-
16ccc
16ggg-
16ccc
16aa-
16ccc
16ggg-
16ccc
16aa-
16ccc
16ggg-
16ccc
16aa-
16ccc
16ggg-
16ccc
16ggg-
16eee-
16aa-
16eee-
16ggg-
16eee-
=210
4fff
8r
4r
8r
4r
8r
[4ff
16ff]
16aa-
=211
4.ddd-
[4fff
16fff]
16ddd-
4.ccc
[4eee-
16eee-]
16ccc
=212
4.ddd-
2.aa-
[4ff
16ff]
16aa-
=213
4.ddd-
[4fff
16fff]
16ddd-
4.ccc
[4eee-
16eee-]
16ccc
=214
4.bb
2.ddd
[4ddd
16ddd]
16bb
=215
4.ccc
2.eee
[4ggg
16ggg]
16fff
=216
4.eee
[4.ggg
4.ggg]
[4ggg
16ggg]
16eee
=217
4.fff
[4.aaa-
4.aaa-]
[4aaa-
16aaa-]
16fff
=218
16r
16d-
16B-
16g-
8r
16r
16g-
16d-
16b-
8r
16r
16b-
16g-
16dd-
8r
16r
16dd-
16b-
16gg-
8r
=219
16r
16gg-
16dd-
16bb-
8r
16r
16bb-
16gg-
16ddd-
8r
16r
16ddd-
16bb-
16ggg-
8r
8r
16ggg-
16ddd-
8bbb-
=220
16r
16e-
16c
16a
8r
16r
16a
16e-
16cc
8r
16r
16cc
16a
16ee-
8r
16r
16ee-
16cc
16aa
8r
=221
16r
16aa
16ee-
16ccc
8r
16r
16ccc
16aa
16eee-
8r
16r
16eee-
16ccc
16aaa
8r
8r
16aaa
16eee-
8cccc
=222
16r
16f
16d-
16b-
8r
8r
16b-
16f
8dd-
16r
16g
16e
16cc
8r
8r
16cc
16g
8ee
=223
16r
16a-
16f
16dd-
8r
8r
16dd-
16a-
8ff
16r
16b-
16g
16ee
8r
8r
16ee
16b-
8gg
=224
16r
16cc
16a-
16ff
8r
16r
16dd-
16b-
16gg
8r
16r
16ee-
16cc
16aa
8r
16r
16ff
16dd-
16bb-
8r
=225
16r
16gg
16ee
16ccc
8r
16r
16aa-
16ff
16ddd-
8r
16r
16bb-
16gg
16eee
8r
16r
16ccc
16aa-
16fff
8r
=226
16r
16ddd-
16bb-
16ggg
8r
16r
16eee-
16ccc
16aaa
8r
16r
16fff
16ddd-
16bbb-
8r
16r
16fff
16ddd-
16bbb-
8r
=227
8r
16r
16fff
16ddd-
16bbb-
16fff
16ddd-
16bb-
16ff
16dd-
16bb-
16ff
16dd-
16b-
16f
16d-
16b-
16f
16d-
16B-
16F
16D-
16B-
=228
16F
16D-
16BB-
16D-
16F
16B-
16d-
16f
16b-
16dd-
16ff
16dd-
16b-
16dd-
16ff
16bb-
16ddd-
16bb-
*8va
16fff
16ddd-
16bbb-
16fff
16ddd-
16bb-
=229
8r
16r
16aaa-
16fff
16bbb
16aaa-
16fff
16ddd
16bb
16aa-
16ff
*X8va
16bb
16aa-
16ff
16dd
16b
16a-
16dd
16b
16a-
16f
16d
16B
=230
16a-
16f
16d
16B
16A-
16F
16D
16BB
16D
16F
16A-
16B-
16d
16f
16a-
16b
16dd
16ff
*8va
16aa-
16bb
16ddd
16fff
16aaa-
16bbb
=231
8r
16r
16aaa-
16fff
16cccc
16aaa-
16fff
16ccc
16aa-
16ff
16ccc
*X8va
16aa-
16ff
16cc
16a-
16f
16cc
16a-
16f
16c
16A-
16F
16c
=232
2.r
16f
16a-
16cc
16ff
16aa-
16ccc
*8va
16fff
16aaa-
16cccc
16aaa-
16fff
16ccc
=233
8r
16r
16ggg
16eee
16bbb-
16ggg
16eee
16ccc
*X8va
16bb-
16gg
16ee
16cc
16b-
16g
16e
16c
16B-
16G
16E
16C
16BB-
16GG
16EE
=234
16CC
16EE
16GG
16BB-
16C
16E
16G
16B-
16c
16e
16g
16b-
16cc
16ee
16gg
16ee
16cc
16ee
16gg
16ee
16bb-
16gg
16ee
16gg
=235
*MM140
4bb-
8r
4r
8r
4r
8r
8gg
8gg
8gg
=236
*MM130
4bb-
8r
4r
8r
4r
8r
8g
8g
8g
=237
*MM120
4b-
8r
4r
8r
*MM110
2.r
=238
*MM100
4r
8r
*MM90
8ee
8ee
8ee
4.ee
*MM144
8eee
8eee
8eee
=239
4fff
8r
4r
8r
4r
8r
[4a-
16a-]
16cc
=240
4.ff
[4aa-
16aa-]
16ff
4.ee
[4gg
16gg]
16ee
=241
4.ff
2.cc
[4aa-
16aa-]
16ccc
=242
*8va
4.fff
[4aaa-
16aaa-]
16fff
4.eee
[4ggg
16ggg]
16eee
=243
4.ggg-
[4.ccc
4.ccc]
*X8va
[4eee-
16eee-]
16ccc
=244
4.fff
[4.bb-
4.bb-]
[4ddd-
16ddd-]
16bb-
=245
4.aa-
[4ccc
16ccc]
16aa-
4.gg
[4ggg
16ggg]
16eee
=246
4.ggg-
[4.ccc
4.ccc]
[4eee-
16eee-]
16ccc
=247
4.fff
[4.bb-
4.bb-]
[4ddd-
16ddd-]
16bb-
=248
4.aa-
[4ccc
16ccc]
16aa-
4.gg
4ccc
8ccc
=249
8ccc
8cc
8cc
4.cc
8r
8cc
8cc
4.cc
=250
8r
8cc
8cc
4.cc
8r
8cc
8cc
4.cc
=251
8r
8cc
8r
8dd-
8r
8dd-
8r
8cc
8r
8cc
8r
8cc
=252
8cc
8c
8c
4.c
8r
8c
8c
4.c
=253
8r
8c
8c
4.c
8r
8c
8c
4.c
=254
8r
8c
8r
8d-
8r
8d-
8r
8c
8r
8c
8r
8c
=255
8r
8cc
8r
8dd-
8r
8dd-
8r
8cc
8r
8cc
8r
8cc
=256
8r
8ccc
8r
8ddd-
8r
8ddd-
8r
8ccc
8r
8ccc
8r
8ccc
=257
16c
16A-
16c
16A-
16c
16A-
16c
16A-
16c
16A-
16c
16A-
16c
16A-
16c
16A-
16c
16A-
16c
16A-
16c
16A-
16c
16A-
=258
16c
16A-
16c
16A-
16c
16A-
16c
16A-
16c
16A-
16c
16A-
16c
16A-
16c
16A-
16c
16A-
16c
16A-
16c
16A-
16c
16A-
=259
16c
16A-
16c
16A-
16c
16A-
16a-
16f
16a-
16f
16a-
16f
16cc
16a-
16cc
16a-
16cc
16a-
16cc
16a-
16cc
16a-
16cc
16a-
=260
16cc
16a-
16cc
16a-
16cc
16a-
16cc
16a-
16cc
16a-
16cc
16a-
16cc
16a-
16cc
16a-
16cc
16a-
16cc
16a-
16cc
16a-
16cc
16a-
=261
16cc
16a-
16cc
16a-
16cc
16a-
16cc
16a-
16cc
16a-
16cc
16a-
16cc
16a-
16cc
16a-
16cc
16a-
16cc
16a-
16cc
16a-
16cc
16a-
=262
1.cc
==
*-
